build/img/spinner.svg

<?xml version="1.0" encoding="utf-8"?>
<svg xmlns="http://www.w3.org/2000/svg" xmlns:xlink="http://www.w3.org/1999/xlink" style="margin: auto; background: none; display: block; shape-rendering: auto;" width="200px" height="200px" viewBox="0 0 100 100" preserveAspectRatio="xMidYMid">
<g transform="translate(50 50)">
<g>
<animateTransform attributeName="transform" type="rotate" values="0;45" keyTimes="0;1" dur="0.3021148036253776s" repeatCount="indefinite"></animateTransform><path d="M29.491524206117255 -5.5 L37.491524206117255 -5.5 L37.491524206117255 5.5 L29.491524206117255 5.5 A30 30 0 0 1 24.742744050198738 16.964569457146712 L24.742744050198738 16.964569457146712 L30.399598299691117 22.621423706639092 L22.621423706639096 30.399598299691114 L16.964569457146716 24.742744050198734 A30 30 0 0 1 5.5 29.491524206117255 L5.5 29.491524206117255 L5.5 37.491524206117255 L-5.499999999999997 37.491524206117255 L-5.499999999999997 29.491524206117255 A30 30 0 0 1 -16.964569457146705 24.742744050198738 L-16.964569457146705 24.742744050198738 L-22.621423706639085 30.399598299691117 L-30.399598299691117 22.621423706639092 L-24.742744050198738 16.964569457146712 A30 30 0 0 1 -29.491524206117255 5.500000000000009 L-29.491524206117255 5.500000000000009 L-37.491524206117255 5.50000000000001 L-37.491524206117255 -5.500000000000001 L-29.491524206117255 -5.500000000000002 A30 30 0 0 1 -24.742744050198738 -16.964569457146705 L-24.742744050198738 -16.964569457146705 L-30.399598299691117 -22.621423706639085 L-22.621423706639092 -30.399598299691117 L-16.964569457146712 -24.742744050198738 A30 30 0 0 1 -5.500000000000011 -29.491524206117255 L-5.500000000000011 -29.491524206117255 L-5.500000000000012 -37.491524206117255 L5.499999999999998 -37.491524206117255 L5.5 -29.491524206117255 A30 30 0 0 1 16.964569457146702 -24.74274405019874 L16.964569457146702 -24.74274405019874 L22.62142370663908 -30.39959829969112 L30.399598299691117 -22.6214237066391 L24.742744050198738 -16.964569457146716 A30 30 0 0 1 29.491524206117255 -5.500000000000013 M0 -20A20 20 0 1 0 0 20 A20 20 0 1 0 0 -20" fill="#1e2d3d"></path></g></g>
<!-- [ldio] generated by https://loading.io/ --></svg>

<svg xmlns="http://www.w3.org/2000/svg" style="margin:auto;background:0 0" width="200" height="200" viewBox="0 0 100 100" preserveAspectRatio="xMidYMid" display="block"><g transform="translate(50 50)"><animateTransform attributeName="transform" type="rotate" values="0;45" keyTimes="0;1" dur="0.3021148036253776s" repeatCount="indefinite"/><path d="M29.492-5.5h8v11h-8a30 30 0 01-4.75 11.465L30.4 22.62l-7.78 7.78-5.656-5.657A30 30 0 015.5 29.492v8h-11v-8a30 30 0 01-11.465-4.75L-22.62 30.4l-7.78-7.78 5.657-5.656A30 30 0 01-29.492 5.5h-8v-11h8a30 30 0 014.75-11.465L-30.4-22.62l7.779-7.779 5.656 5.657A30 30 0 01-5.5-29.492v-8h11v8a30 30 0 0111.465 4.75L22.62-30.4l7.78 7.78-5.657 5.656A30 30 0 0129.492-5.5M0-20a20 20 0 100 40 20 20 0 100-40" fill="#1e2d3d"/></g></svg>
